X:60
T:Jenny Picking Cockles
M:C|
L:1/8
S:Dmix
R:Reel
K:Dmix
D | "D"Addc AGEF | "C"GEcE dEcE | "D  (Bm)"Addc AGEF | "C"GEcE "D"EDD2 |
!
"D"Addc AGEF | "C"GEE2 c3d | "Am"ecdc AGEF | GEcE "D"EDD2 :|!
|: "D"f3d efed | "A"^cAAB "C"=cdeg | "D"f3d ed^cd | "Am"eaag "D"edde |!
"D"f3d efed | "Am"^cAAB "C"=c3d | ecdc "Am"AGEF | GEcE "D"EDD2:|!
